icons/youtube.svg

<svg xmlns="http://www.w3.org/2000/svg" width="24" height="24" viewBox="0 0 24 24">
  <path d="M10,16.5 L10,7.5 L16,12 M20,4.4 C17.3463381,4.07543429 14.6728023,3.9417575 12,4 C9.32771553,3.93840253 6.65441435,4.06538434 4,4.38 C2.44,4.9 2,8.4 2,12 C2,15.6 2.44,19.1 4,19.62 C6.65441435,19.9346157 9.32771553,20.0615975 12,20 C14.6722841,20.0615642 17.3455829,19.9345825 20,19.62 C21.56,19.1 22,15.62 22,12 C22,8.38 21.57,4.92 20,4.4 L20,4.4 Z"/>
</svg>

<svg xmlns="http://www.w3.org/2000/svg" viewBox="0 0 24 24">
  <path d="M10 16.5v-9l6 4.5m4-7.6a55.87 55.87 0 0 0-8-.4c-2.67-.06-5.35.07-8 .38C2.44 4.9 2 8.4 2 12c0 3.6.44 7.1 2 7.62 2.65.31 5.33.44 8 .38 2.67.06 5.35-.07 8-.38 1.56-.52 2-4 2-7.62s-.43-7.08-2-7.6z"/>
</svg>
